X: 1206
T: Kapat Gözlerini
C: Gündoğdu Duran
O: Turkey
F: http://compmusic.upf.edu/node/140
N: segah--sarki--yuruksemai--kapat_gozlerini--mustafa_seyran
N: makam= segah
N: form= sarki
N: usul= yuruksemai = 6/8
M: 6/8
L: 1/16
K: C _1/4B _1/4e ^f 
Q: 1/4=204
%%MIDI tuningsystem comma53
g2g2 f2g2 e2d2  | d2d2 e2f6  | a2g2 f2g2 e2d2  | d12  | \
w:  ARANAĞME  |   |   |   | 
B2B2 d2d2 d2c2  | 
w:   | 
B2B2 c2d6  | e2c4d2 d2c2  | B4 G2B6  | g2g2 f2g2 e2d2  | \
w:   |   |   |  ARANAĞME  | 
d2d2 e2f6  | 
w:   | 
a2g2 f2g2 e2d2  | d12  | B2B2 d2d2 d2c2  | \
w:   |   |   | 
B2B2 c2d6  | e2c4d2 d2c2  | 
w:   |   | 
B4 G2B6  | G2B4c4d2  | B2d8-d2  | e4 c2d4c2  | B12  | \
w:   |  Ka pat  göz le  |  ri ni   |  kim se  gör me  |  sin    | 
e2d2 c2d4c2  | B12  | 
w:  SAZ  |   | 
B4 c2d2 e4  | d2g8-g2  | g4 f2f2 e2d2  | d12  | \
w:  Yal nız  be nim   |  i çin   |  bak  ye şil  *  ye  |  şil    | 
g2g2 f2f2 e2d2  | d12  | G2B4c4d2  | 
w:  SAZ  |   |  Ka pat  göz le  | 
B2d8-d2  | e4 c2d4c2  | B12  | e2d2 c2d4c2  | B12  | \
w:  ri ni   |  kim se  gör me  |  sin    |  SAZ  |   | 
B4 c2d2 e4  | d2g8-g2  | 
w:  Yal nız  be nim   |  i çin   | 
g4 f2f2 e2d2  | d12  | g2g2 f2f2 e2d2  | d12  | \
w:  bak  ye şil  *  ye  |  şil    |  SAZ  |   | 
g4 f2g6  | a2g2 f2f6  | g2f2 e2e2 d2c2  | 
w:  Göz le rin   |  kim *  se ye   |  ü mit  *  ver *  me  | 
c12  | g2f2 e2e2 d2c2  | c12  | G4 B2c2 d4  | \
w:  sin    |  SAZ  |   |  Yal nız  be nim   | 
B2d8-d2  | e4 c2d4c2  | B12  | e2d2 c2d2 c2B2  | 
w:  i çin   |  bak  ye şil  ye  |  şil    |  SAZ  | 
B12  | g4 f2g6  | a2g2 f2f6  | g2f2 e2e2 d2c2  | c12  | \
w:   |  Göz le rin   |  kim *  se ye   |  ü mit  *  ver *  me  |  sin    | 
g2f2 e2e2 d2c2  | 
w:  SAZ  | 
c12  | G4 B2c2 d4  | B2d8-d2  | e4 c2d4c2  | B12  | \
w:   |  Yal nız  be nim   |  i çin   |  bak  ye şil  ye  |  şil    | 
e2d2 c2d2 c2B2  | B12  | g2g2 f2g2 e2d2  | 
w:  SAZ  |   |  ARANAĞME  | 
d2d2 e2f6  | a2g2 f2g2 e2d2  | d12  | B2B2 d2d2 d2c2  | \
w:   |   |   |   | 
B2B2 c2d6  | 
w:   | 
e2c4d2 d2c2  | B4 G2B6  | g2g2 f2g2 e2d2  | \
w:   |   |  ARANAĞME  | 
d2d2 e2f6  | a2g2 f2g2 e2d2  | 
w:   |   | 
d12  | B2B2 d2d2 d2c2  | B2B2 c2d6  | e2c4d2 d2c2  | \
w:   |   |   |   | 
B4 G2B6  | G2B4c4d2  | 
w:   |  Se ni  öy le   | 
B4 d2d6  | e2d2 c2d2 c2B2  | B12  | e2d2 c2d4c2  | B12  | \
w:  sev *  dim   |  ö lür *  ce si  |  ne    |  SAZ  |   | 
B4 c2d6  | e4 d2g6  | 
w:  Tan rı nın   |  yaz dı ğı   | 
g2f2 e2f2 e2d2  | d12  | g2f2 e2f2 e2d2  | d12  | \
w:  şi ir *  ce si  |  ne    |  SAZ  |   | 
G2B4c4d2  | B4 d2d6  | 
w:  Se ni  öy le   |  sev *  dim   | 
e2d2 c2d2 c2B2  | B12  | e2d2 c2d4c2  | B12  | \
w:  ö lür *  ce si  |  ne    |  SAZ  |   | 
B4 c2d6  | e4 d2g6  | g2f2 e2f2 e2d2  | 
w:  Tan rı nın   |  yaz dı ğı   |  şi ir *  ce si  | 
d12  | g2f2 e2f2 e2d2  | d12  | g2f4g6  | a2g2 f2f6  | \
w:  ne    |  SAZ  |   |  İ çim den   |  ge çe *  ni   | 
g2f2 e2e2 d2c2  | 
w:  bi lir *  ce si  | 
c12  | g2f2 e2e2 d2c2  | c12  | G4 B2c2 d4  | \
w:  ne    |  SAZ  |   |  Yal nız  be nim   | 
B2d8-d2  | e4 c2d4c2  | B12  | e2d2 c2d2 c2B2  | 
w:  i çin   |  bak  ye şil  ye  |  şil    |  SAZ  | 
B12  | g2f4g6  | a2g2 f2f6  | g2f2 e2e2 d2c2  | c12  | \
w:   |  İ çim den   |  ge çe *  ni   |  bi lir *  ce si  |  ne    | 
g2f2 e2e2 d2c2  | 
w:  SAZ  | 
c12  | G4 B2c2 d4  | B2d8-d2  | e4 c2d4c2  | B12  | \
w:   |  Yal nız  be nim   |  i çin   |  bak  ye şil  ye  |  şil    | 
e2d2 c2d2 c2B2  | B12  | |


